public/proofrr/logo-nav.svg

<svg xmlns="http://www.w3.org/2000/svg" width="640" height="288" fill="none"><g clip-path="url(#a)"><rect width="640" height="288" fill="#fff" rx="144"/><path fill="#0069FC" d="M0 0h640v640H0z"/><ellipse cx="263.4" cy="144.027" fill="#77B0FF" rx="31.4" ry="34.495"/><ellipse cx="353.4" cy="144.027" fill="#77B0FF" rx="31.4" ry="34.495"/><circle cx="254.555" cy="155.968" r="22.555" fill="#000"/><circle cx="345.439" cy="155.968" r="22.555" fill="#000"/><path fill="#FFE814" d="M147.288 129.09c0 14.492-12.114 28.191-28.078 28.191h-11.548V184h-15.17v-82.987h26.718c14.492 0 28.078 12.34 28.078 28.077Zm-39.626 15.737h11.322c7.585 0 13.925-7.245 13.925-15.737 0-7.925-6.113-15.51-13.925-15.51h-11.322v31.247ZM212.661 184h-15.85l-10.982-26.832c-.906.113-1.812.113-2.831.113H171.79V184h-15.171v-82.987h27.172c14.492 0 28.077 12.34 28.077 28.077 0 8.944-4.415 17.436-12.453 23.21l13.246 31.7Zm-40.871-39.173h11.661c7.586 0 13.813-7.019 13.813-15.737 0-8.038-6.001-15.51-13.926-15.51H171.79v31.247Zm87.358 40.418c-23.322 0-42.682-19.812-42.682-42.682 0-23.549 19.926-42.57 42.682-42.57 23.549 0 42.683 19.814 42.683 42.57 0 23.775-19.813 42.682-42.683 42.682Zm-27.058-42.682c0 15.624 12.227 30.342 27.058 30.342 15.737 0 27.059-15.85 27.059-30.342 0-15.284-12.227-30.342-27.059-30.342-15.397 0-27.058 15.511-27.058 30.342Zm117.834 42.682c-23.322 0-42.682-19.812-42.682-42.682 0-23.549 19.926-42.57 42.682-42.57 23.549 0 42.683 19.814 42.683 42.57 0 23.775-19.813 42.682-42.683 42.682Zm-27.058-42.682c0 15.624 12.227 30.342 27.058 30.342 15.737 0 27.059-15.85 27.059-30.342 0-15.284-12.227-30.342-27.059-30.342-15.397 0-27.058 15.511-27.058 30.342Zm93.833-28.53v29.775h22.53l-1.132 12.567h-21.398V184h-15.058v-82.987h42.796l1.245 13.02h-28.983ZM511.75 184h-15.851l-10.981-26.832c-.906.113-1.812.113-2.831.113h-11.208V184h-15.171v-82.987h27.172c14.491 0 28.077 12.34 28.077 28.077 0 8.944-4.415 17.436-12.454 23.21L511.75 184Zm-40.871-39.173h11.661c7.585 0 13.812-7.019 13.812-15.737 0-8.038-6-15.51-13.925-15.51h-11.548v31.247ZM577.096 184h-15.85l-10.982-26.832c-.905.113-1.811.113-2.83.113h-11.209V184h-15.17v-82.987h27.171c14.492 0 28.078 12.34 28.078 28.077 0 8.944-4.416 17.436-12.454 23.21l13.246 31.7Zm-40.871-39.173h11.662c7.585 0 13.812-7.019 13.812-15.737 0-8.038-6-15.51-13.925-15.51h-11.549v31.247Z"/></g><defs><clipPath id="a"><rect width="640" height="288" fill="#fff" rx="144"/></clipPath></defs></svg>

<svg width="640" height="288" viewBox="0 0 640 288" fill="none" xmlns="http://www.w3.org/2000/svg">
<g clip-path="url(#clip0_181_246)">
<rect width="640" height="288" rx="144" fill="white"/>
<rect width="640" height="640" fill="#0069FC"/>
<ellipse cx="263.4" cy="144.027" rx="31.3997" ry="34.4954" fill="#77B0FF"/>
<ellipse cx="353.4" cy="144.027" rx="31.3997" ry="34.4954" fill="#77B0FF"/>
<circle cx="254.555" cy="155.968" r="22.5547" fill="black"/>
<circle cx="345.439" cy="155.968" r="22.5547" fill="black"/>
<path d="M147.288 129.09C147.288 143.582 135.174 157.281 119.21 157.281H107.662V184H92.4912V101.013H119.21C133.702 101.013 147.288 113.353 147.288 129.09ZM107.662 144.827H118.984C126.569 144.827 132.909 137.582 132.909 129.09C132.909 121.165 126.796 113.58 118.984 113.58H107.662V144.827ZM212.661 184H196.811L185.829 157.168C184.923 157.281 184.017 157.281 182.998 157.281H171.79V184H156.619V101.013H183.791C198.283 101.013 211.868 113.353 211.868 129.09C211.868 138.034 207.453 146.526 199.415 152.3L212.661 184ZM171.79 144.827H183.451C191.037 144.827 197.264 137.808 197.264 129.09C197.264 121.052 191.263 113.58 183.338 113.58H171.79V144.827ZM259.148 185.245C235.826 185.245 216.466 165.433 216.466 142.563C216.466 119.014 236.392 99.9939 259.148 99.9939C282.697 99.9939 301.831 119.807 301.831 142.563C301.831 166.338 282.018 185.245 259.148 185.245ZM232.09 142.563C232.09 158.187 244.317 172.905 259.148 172.905C274.885 172.905 286.207 157.055 286.207 142.563C286.207 127.279 273.98 112.221 259.148 112.221C243.751 112.221 232.09 127.732 232.09 142.563ZM349.924 185.245C326.602 185.245 307.242 165.433 307.242 142.563C307.242 119.014 327.168 99.9939 349.924 99.9939C373.473 99.9939 392.607 119.807 392.607 142.563C392.607 166.338 372.794 185.245 349.924 185.245ZM322.866 142.563C322.866 158.187 335.093 172.905 349.924 172.905C365.661 172.905 376.983 157.055 376.983 142.563C376.983 127.279 364.756 112.221 349.924 112.221C334.527 112.221 322.866 127.732 322.866 142.563ZM416.699 114.033V143.808H439.229L438.097 156.375H416.699V184H401.641V101.013H444.437L445.682 114.033H416.699ZM511.75 184H495.899L484.918 157.168C484.012 157.281 483.106 157.281 482.087 157.281H470.879V184H455.708V101.013H482.88C497.371 101.013 510.957 113.353 510.957 129.09C510.957 138.034 506.542 146.526 498.503 152.3L511.75 184ZM470.879 144.827H482.54C490.125 144.827 496.352 137.808 496.352 129.09C496.352 121.052 490.352 113.58 482.427 113.58H470.879V144.827ZM577.096 184H561.246L550.264 157.168C549.359 157.281 548.453 157.281 547.434 157.281H536.225V184H521.055V101.013H548.226C562.718 101.013 576.304 113.353 576.304 129.09C576.304 138.034 571.888 146.526 563.85 152.3L577.096 184ZM536.225 144.827H547.887C555.472 144.827 561.699 137.808 561.699 129.09C561.699 121.052 555.699 113.58 547.774 113.58H536.225V144.827Z" fill="#FFE814"/>
</g>
<defs>
<clipPath id="clip0_181_246">
<rect width="640" height="288" rx="144" fill="white"/>
</clipPath>
</defs>
</svg>
